X:357
T: DORT UNTEN IM THALE
N: B0424
O: Europa, Mitteleuropa, Deutschland, Oberdiebach; Laubenheim (Nahe)
R: Liebes - Lied, Liebes - Lust
M: 3/4
L: 1/8
K: G
G2 | F2E2D2 | B2B3A | G2G2B2 | D4
G2 | F2F2F2 | F2E2F2 | G2G2G2 | D4
G2 | F2E2D2 | B2B3A | G2G2B2 | D4
G2 | F2F2F2 | F2E2F2 | G6- | G2z2
G2 | F4A2 | e4d2 | B3BB2 | G4
B2 | c2c2A2 | F2E2F2 | G6- | G2z2

